icons/midnadark/actions/24/tool_polygon.svg

<?xml version="1.0" encoding="UTF-8" standalone="no"?>
<!-- Created with Inkscape (http://www.inkscape.org/) -->

<svg
   xmlns:dc="http://purl.org/dc/elements/1.1/"
   xmlns:cc="http://creativecommons.org/ns#"
   xmlns:rdf="http://www.w3.org/1999/02/22-rdf-syntax-ns#"
   xmlns:svg="http://www.w3.org/2000/svg"
   xmlns="http://www.w3.org/2000/svg"
   xmlns:sodipodi="http://sodipodi.sourceforge.net/DTD/sodipodi-0.dtd"
   xmlns:inkscape="http://www.inkscape.org/namespaces/inkscape"
   width="22"
   height="22"
   id="svg3760"
   version="1.1"
   inkscape:version="0.91 r13725"
   sodipodi:docname="tool_polygon.svg">
  <defs
     id="defs3762" />
  <sodipodi:namedview
     id="base"
     pagecolor="#ffffff"
     bordercolor="#666666"
     borderopacity="1.0"
     inkscape:pageopacity="0.0"
     inkscape:pageshadow="2"
     inkscape:zoom="23.069359"
     inkscape:cx="12.252775"
     inkscape:cy="8.3644061"
     inkscape:document-units="px"
     inkscape:current-layer="layer1"
     showgrid="true"
     fit-margin-top="0"
     fit-margin-left="0"
     fit-margin-right="0"
     fit-margin-bottom="0"
     inkscape:window-width="1024"
     inkscape:window-height="712"
     inkscape:window-x="0"
     inkscape:window-y="0"
     inkscape:window-maximized="1"
     inkscape:showpageshadow="false">
    <sodipodi:guide
       position="2,20"
       orientation="18,0"
       id="guide4123" />
    <sodipodi:guide
       position="2,2"
       orientation="0,18"
       id="guide4125" />
    <sodipodi:guide
       position="20,2"
       orientation="-18,0"
       id="guide4127" />
    <sodipodi:guide
       position="20,20"
       orientation="0,-18"
       id="guide4129" />
    <sodipodi:guide
       position="3,19"
       orientation="16,0"
       id="guide4131" />
    <sodipodi:guide
       position="3,3"
       orientation="0,16"
       id="guide4133" />
    <sodipodi:guide
       position="19,3"
       orientation="-16,0"
       id="guide4135" />
    <sodipodi:guide
       position="19,19"
       orientation="0,-16"
       id="guide4137" />
    <inkscape:grid
       type="xygrid"
       id="grid4139"
       originx="-0.99998557"
       originy="-1.0000118" />
    <sodipodi:guide
       position="11.707097,11.300043"
       orientation="0.70710678,-0.70710678"
       id="guide4134" />
    <sodipodi:guide
       position="10.99999,10.592936"
       orientation="8.2929677,8.2929677"
       id="guide4136" />
    <sodipodi:guide
       position="19.292958,2.2999687"
       orientation="-0.70710678,0.70710678"
       id="guide4138" />
    <sodipodi:guide
       position="20.000064,3.0070755"
       orientation="-8.2929677,-8.2929677"
       id="guide4140" />
  </sodipodi:namedview>
  <metadata
     id="metadata3765">
    <rdf:RDF>
      <cc:Work
         rdf:about="">
        <dc:format>image/svg+xml</dc:format>
        <dc:type
           rdf:resource="http://purl.org/dc/dcmitype/StillImage" />
        <dc:title></dc:title>
      </cc:Work>
    </rdf:RDF>
  </metadata>
  <g
     inkscape:label="Capa 1"
     inkscape:groupmode="layer"
     id="layer1"
     transform="translate(-551.28571,-607.64789)">
    <path
       style="opacity:1;fill:#f2f2f2;fill-opacity:1;stroke:none"
       d="m 4,4 0,1 0,10 0,1 4,0 0,4 1,0 11,0 0.992188,0 L 21,19.992188 12.707031,11.699219 10,8.9921875 10,5 10,4 5,4 Z m 1,1 4,0 0,4 0,0.40625 3,3 L 18.59375,19 9,19 9,15 8,15 5,15 Z"
       transform="translate(550.28572,606.6479)"
       id="rect4112"
       inkscape:connector-curvature="0"
       sodipodi:nodetypes="ccccccccccccccccccccccccccc" />
    <path
       style="fill:#f2f2f2;fill-rule:evenodd;stroke:none;stroke-width:1px;stroke-linecap:butt;stroke-linejoin:miter;stroke-opacity:1;fill-opacity:0.45882353"
       d="m 559.28572,616.05498 0,-4.40708 -4,0 0,10 4,0 0,4 9.59293,0 0,0 z"
       id="path4147"
       inkscape:connector-curvature="0" />
  </g>
</svg>

<svg xmlns="http://www.w3.org/2000/svg" viewBox="0 0 22 22"><g transform="translate(-551.29-607.65)" fill="#f2f2f2"><path d="m4 4v1 10 1h4v4h1 11 .992l.008-.008-8.293-8.293-2.707-2.707v-3.992-1h-5m0 1h4v4 .406l3 3 6.594 6.594h-9.594v-4h-1-3" transform="translate(550.29 606.65)"/><path d="m559.29 616.05v-4.407h-4v10h4v4h9.593z" fill-rule="evenodd" fill-opacity=".459"/></g></svg>
